svg/black/cs.svg

<svg height="32" viewBox="0 0 32 32" width="32" xmlns="http://www.w3.org/2000/svg"><path d="m16.9311313 9.62521437c.0613385-1.1878622.4536457-3.82606907 1.7041146-3.82606907.3306011 0 .6010929.09401709.8114754.28205128-.3005464.15669516-.4508197.42307692-.4508197.7991453 0 .56410256.4733607.94017094.9467214.94017094.4733606 0 .9467213-.28205128.9467213-.94017094s-.6311476-1.88034188-2.1188525-1.88034188c-2.4582145.04577261-3.420439 2.85483413-3.4693367 4.69501004-2.5014834.39507656-5.0511551 2.16524686-5.0511551 6.25798146 0 3.6391648 2.4489036 6.1432717 5.0767279 6.5650747-.115807 2.0979952-.7939133 3.729797-1.6955804 3.729797-.2704918 0-.5409836-.094017-.8114754-.2820512.2704918-.1566952.4057377-.4387465.4057377-.8461539 0-.6111111-.4508196-.9401709-.9016393-.9401709s-.9467213.2820513-.9467213.9401709c0 1.0103395.9467213 1.8803419 2.0737705 1.8803419 2.380833 0 3.3410357-2.4442128 3.5268336-4.4729187 2.489896-.3111643 4.2723467-1.8828516 4.2723467-2.5783634 0-.3290598-.2254098-.4700854-.4057377-.4700854-.3249079 0-1.5768383 1.6848309-3.8324023 2.0132595-.0058063-2.1744723-.0680558-8.4951102-.0853146-10.7912765.8465856.0474397 1.5748227.2735607 2.2947661 1.3506666.6680996.9995426.5409836 1.5042735.9918033 1.5042735.3005464 0 .4658469-.1253562.4959016-.3760684-.1202186-.3657595-.1803279-.6321413-.1803279-.7991453 0-.2505061.045082-.6581197.045082-.8461539 0-.2645054-1.1894256-1.72792485-3.6426392-1.90897363zm-1.5872957 11.78784063c-1.7258977-.5213327-3.110229-2.5319212-3.110229-5.4600635 0-1.8466306.7597695-4.5925291 3.0675294-5.160067.0080925 2.5769571.0387216 8.1856821.0426996 10.6201305zm.6561644 10.586945c-8.836556 0-16-7.163444-16-16s7.163444-16 16-16 16 7.163444 16 16-7.163444 16-16 16z" fill-rule="evenodd"/></svg>

<svg xmlns="http://www.w3.org/2000/svg" width="32" height="32" viewBox="0 0 32 32">
  <path fill-rule="evenodd" d="M16.9311313,9.62521437 C16.9924698,8.43735217 17.384777,5.7991453 18.6352459,5.7991453 C18.965847,5.7991453 19.2363388,5.89316239 19.4467213,6.08119658 C19.1461749,6.23789174 18.9959016,6.5042735 18.9959016,6.88034188 C18.9959016,7.44444444 19.4692623,7.82051282 19.942623,7.82051282 C20.4159836,7.82051282 20.8893443,7.53846154 20.8893443,6.88034188 C20.8893443,6.22222222 20.2581967,5 18.7704918,5 C16.3122773,5.04577261 15.3500528,7.85483413 15.3011551,9.69501004 C12.7996717,10.0900866 10.25,11.8602569 10.25,15.9529915 C10.25,19.5921563 12.6989036,22.0962632 15.3267279,22.5180662 C15.2109209,24.6160614 14.5328146,26.2478632 13.6311475,26.2478632 C13.3606557,26.2478632 13.0901639,26.1538462 12.8196721,25.965812 C13.0901639,25.8091168 13.2254098,25.5270655 13.2254098,25.1196581 C13.2254098,24.508547 12.7745902,24.1794872 12.3237705,24.1794872 C11.8729508,24.1794872 11.3770492,24.4615385 11.3770492,25.1196581 C11.3770492,26.1299976 12.3237705,27 13.4508197,27 C15.8316527,27 16.7918554,24.5557872 16.9776533,22.5270813 C19.4675493,22.215917 21.25,20.6442297 21.25,19.9487179 C21.25,19.6196581 21.0245902,19.4786325 20.8442623,19.4786325 C20.5193544,19.4786325 19.267424,21.1634634 17.01186,21.491892 C17.0060537,19.3174197 16.9438042,12.9967818 16.9265454,10.7006155 C17.773131,10.7480552 18.5013681,10.9741762 19.2213115,12.0512821 C19.8894111,13.0508247 19.7622951,13.5555556 20.2131148,13.5555556 C20.5136612,13.5555556 20.6789617,13.4301994 20.7090164,13.1794872 C20.5887978,12.8137277 20.5286885,12.5473459 20.5286885,12.3803419 C20.5286885,12.1298358 20.5737705,11.7222222 20.5737705,11.534188 C20.5737705,11.2696826 19.3843449,9.80626315 16.9311313,9.62521437 Z M15.3438356,21.413055 C13.6179379,20.8917223 12.2336066,18.8811338 12.2336066,15.9529915 C12.2336066,14.1063609 12.9933761,11.3604624 15.301136,10.7929245 C15.3092285,13.3698816 15.3398576,18.9786066 15.3438356,21.413055 Z M16,32 C7.163444,32 0,24.836556 0,16 C0,7.163444 7.163444,0 16,0 C24.836556,0 32,7.163444 32,16 C32,24.836556 24.836556,32 16,32 Z"/>
</svg>
